page/img/list.svg

<svg width="236" height="40" viewBox="0 0 236 40" fill="none" xmlns="http://www.w3.org/2000/svg">
<g clip-path="url(#clip0_2_3810)">
<path fill-rule="evenodd" clip-rule="evenodd" d="M18 0.700195C8.055 0.700195 0 8.80019 0 18.8052C0 27.8502 6.585 35.3502 15.195 36.7002V24.0402H10.62V18.8052H15.18V14.8152C15.18 10.2852 17.88 7.7652 21.99 7.7652C23.955 7.7652 26.01 8.1252 26.01 8.1252V12.5802H23.76C21.51 12.5802 20.82 13.9752 20.82 15.4152V18.8052H25.8L25.005 24.0552H20.805V36.7002C29.43 35.3502 36 27.8502 36 18.8052C36 8.8152 27.945 0.700195 18 0.700195Z" fill="#00AFF5"/>
</g>
<path d="M93 9.9507C91.875 10.4502 90.75 10.8252 89.5005 10.9497C90.75 10.1997 91.7505 8.9502 92.25 7.5747C91.0005 8.3247 89.7495 8.8257 88.3755 9.0747C87.8075 8.44459 87.1133 7.94096 86.3381 7.59649C85.5628 7.25203 84.7238 7.07442 83.8755 7.0752C82.2518 7.07758 80.6952 7.72355 79.5469 8.87156C78.3986 10.0196 77.7523 11.576 77.7495 13.1997C77.7495 13.7007 77.7495 14.2002 77.8755 14.5752C72.6255 14.3247 68.1255 11.8257 65.1255 8.0757C64.5 9.0747 64.2495 10.0752 64.2495 11.2002C64.2495 13.3257 65.3745 15.2007 67.0005 16.3257C66 16.3257 64.9995 16.0752 64.2495 15.5757V15.7002C64.2495 18.7002 66.375 21.2007 69.1245 21.7002C68.625 21.8247 68.1255 21.9507 67.5 21.9507C67.125 21.9507 66.75 21.9507 66.375 21.8247C67.125 24.3252 69.375 26.0757 72.1245 26.0757C70.0005 27.7002 67.3755 28.7007 64.5 28.7007C64.0005 28.7007 63.4995 28.7007 63 28.5747C65.7495 30.3252 69 31.3257 72.375 31.3257C83.7495 31.3257 89.8755 21.9507 89.8755 13.8252V13.0752C91.125 12.2007 92.1255 11.0757 93 9.9507Z" fill="#00AFF5"/>
<path d="M152.75 12.7002C152.75 12.7002 152.5 10.5747 151.5 9.7002C150.375 8.4507 149.125 8.4507 148.5 8.4507C144.25 8.2002 138 8.2002 138 8.2002C138 8.2002 131.75 8.2002 127.5 8.4507C126.875 8.5752 125.625 8.5752 124.5 9.7002C123.625 10.5747 123.251 12.7002 123.251 12.7002C123.251 12.7002 123 15.0747 123 17.5752V19.8252C123 22.1997 123.251 24.7002 123.251 24.7002C123.251 24.7002 123.5 26.8257 124.5 27.7002C125.625 28.9497 127.125 28.8252 127.75 28.9497C130.125 29.2002 138 29.2002 138 29.2002C138 29.2002 144.25 29.2002 148.5 28.8252C149.125 28.7007 150.375 28.7007 151.5 27.5757C152.375 26.6997 152.75 24.5757 152.75 24.5757C152.75 24.5757 153 22.1997 153 19.7007V17.4507C153 15.0747 152.75 12.7002 152.75 12.7002ZM134.875 22.5747V14.2002L143 18.4497L134.875 22.5747Z" fill="#00AFF5"/>
<path d="M198 6.4032C202.005 6.4032 202.48 6.4182 204.063 6.4902C205.768 6.5682 207.353 6.9102 208.571 8.1282C209.79 9.3477 210.133 10.9317 210.208 12.6402C210.284 14.2197 210.297 14.6952 210.297 18.7002C210.297 22.7052 210.284 23.1807 210.208 24.7632C210.133 26.4687 209.79 28.0527 208.572 29.2707C207.354 30.4887 205.769 30.8337 204.062 30.9087C202.479 30.9837 202.003 30.9972 197.998 30.9972C193.993 30.9972 193.518 30.9837 191.935 30.9087C190.23 30.8337 188.646 30.4902 187.428 29.2722C186.21 28.0542 185.865 26.4672 185.79 24.7602C185.715 23.1777 185.703 22.7022 185.703 18.6972C185.703 14.6922 185.715 14.2167 185.79 12.6342C185.865 10.9287 186.21 9.3447 187.428 8.1267C188.646 6.9087 190.23 6.5652 191.937 6.4902C193.519 6.4152 193.995 6.4032 198 6.4032ZM198 3.7002C193.924 3.7002 193.414 3.7182 191.816 3.7902C189.378 3.9027 187.237 4.4997 185.517 6.2172C183.799 7.9377 183.199 10.0782 183.09 12.5157C183.018 14.1147 183 14.6277 183 18.7002C183 22.7757 183.018 23.2857 183.09 24.8847C183.202 27.3222 183.798 29.4642 185.517 31.1832C187.236 32.9022 189.378 33.4992 191.816 33.6102C193.414 33.6822 193.927 33.7002 198 33.7002C202.073 33.7002 202.585 33.6822 204.184 33.6102C206.622 33.4977 208.764 32.9022 210.483 31.1832C212.202 29.4642 212.799 27.3222 212.91 24.8847C212.982 23.2857 213 22.7727 213 18.7002C213 14.6277 212.982 14.1147 212.91 12.5157C212.798 10.0782 212.202 7.9362 210.483 6.2172C208.763 4.4997 206.622 3.8997 204.184 3.7902C202.585 3.7182 202.073 3.7002 198 3.7002Z" fill="#00AFF5"/>
<path d="M198 10.9978C196.979 10.9837 195.966 11.1725 195.019 11.5533C194.072 11.9341 193.21 12.4994 192.483 13.2162C191.757 13.933 191.179 14.787 190.786 15.7288C190.392 16.6705 190.189 17.6811 190.189 18.7018C190.189 19.7226 190.392 20.7331 190.786 21.6748C191.18 22.6164 191.757 23.4704 192.484 24.187C193.211 24.9037 194.073 25.4687 195.02 25.8494C195.967 26.23 196.981 26.4187 198.001 26.4043C200.026 26.3759 201.958 25.5517 203.379 24.1099C204.801 22.6682 205.597 20.7249 205.597 18.7003C205.597 16.6757 204.8 14.7326 203.378 13.2911C201.956 11.8497 200.024 11.0259 198 10.9978ZM198 23.6998C196.674 23.6998 195.402 23.1731 194.465 22.2355C193.527 21.2979 193 20.0263 193 18.7003C193 17.3744 193.527 16.1027 194.465 15.1651C195.402 14.2275 196.674 13.7008 198 13.7008C199.326 13.7008 200.598 14.2275 201.535 15.1651C202.473 16.1027 202.999 17.3744 202.999 18.7003C202.999 20.0263 202.473 21.2979 201.535 22.2355C200.598 23.1731 199.326 23.6998 198 23.6998Z" fill="#00AFF5"/>
<path d="M206.007 12.4931C207.001 12.4931 207.807 11.6872 207.807 10.6931C207.807 9.69895 207.001 8.89307 206.007 8.89307C205.013 8.89307 204.207 9.69895 204.207 10.6931C204.207 11.6872 205.013 12.4931 206.007 12.4931Z" fill="#00AFF5"/>
<defs>
<clipPath id="clip0_2_3810">
<rect width="36" height="36" fill="white" transform="translate(0 0.700195)"/>
</clipPath>
</defs>
</svg>

<?xml version="1.0"?>
<svg width="236" height="40" xmlns="http://www.w3.org/2000/svg" xmlns:svg="http://www.w3.org/2000/svg">
 <defs>
  <clipPath id="clip0_2_3810">
   <rect fill="white" height="36" id="svg_1" transform="translate(0 0.700195)" width="36"/>
  </clipPath>
 </defs>
 <g class="layer">
  <title>Layer 1</title>
  <g clip-path="url(#clip0_2_3810)" id="svg_2" transform="matrix(1 0 0 1 0 0)">
   <path clip-rule="evenodd" d="m18,0.7c-9.95,0 -18,8.1 -18,18.11c0,9.04 6.58,16.54 15.2,17.89l0,-12.66l-4.58,0l0,-5.23l4.56,0l0,-3.99c0,-4.53 2.7,-7.05 6.81,-7.05c1.96,0 4.02,0.36 4.02,0.36l0,4.45l-2.25,0c-2.25,0 -2.94,1.4 -2.94,2.84l0,3.39l4.98,0l-0.8,5.25l-4.2,0l0,12.64c8.63,-1.35 15.2,-8.85 15.2,-17.89c0,-9.99 -8.05,-18.11 -18,-18.11z" fill="#157b0f" fill-rule="evenodd" id="svg_3"/>
  </g>
  <path d="m93,9.95c-1.12,0.5 -2.25,0.88 -3.5,1c1.25,-0.75 2.25,-2 2.75,-3.38c-1.25,0.75 -2.5,1.26 -3.87,1.5c-0.57,-0.63 -1.27,-1.13 -2.04,-1.47c-0.78,-0.35 -1.62,-0.53 -2.46,-0.52c-1.63,0 -3.18,0.64 -4.33,1.79c-1.15,1.15 -1.8,2.71 -1.8,4.33c0,0.5 0,1 0.13,1.38c-5.25,-0.26 -9.75,-2.75 -12.75,-6.5c-0.63,0.99 -0.88,2 -0.88,3.12c0,2.13 1.12,4 2.75,5.13c-1,0 -2,-0.25 -2.75,-0.75l0,0.12c0,3 2.13,5.5 4.87,6c-0.49,0.12 -0.99,0.25 -1.62,0.25c-0.37,0 -0.75,0 -1.12,-0.13c0.75,2.51 3,4.26 5.74,4.26c-2.12,1.62 -4.74,2.62 -7.62,2.62c-0.5,0 -1,0 -1.5,-0.13c2.75,1.76 6,2.76 9.38,2.76c11.37,0 17.5,-9.38 17.5,-17.5l0,-0.75c1.25,-0.88 2.25,-2 3.12,-3.13z" fill="#157b0f" id="svg_4" transform="matrix(1 0 0 1 0 0)"/>
  <path d="m152.75,12.7c0,0 -0.25,-2.13 -1.25,-3c-1.12,-1.25 -2.37,-1.25 -3,-1.25c-4.25,-0.25 -10.5,-0.25 -10.5,-0.25c0,0 -6.25,0 -10.5,0.25c-0.62,0.13 -1.87,0.13 -3,1.25c-0.87,0.87 -1.25,3 -1.25,3c0,0 -0.25,2.37 -0.25,4.88l0,2.25c0,2.37 0.25,4.87 0.25,4.87c0,0 0.25,2.13 1.25,3c1.13,1.25 2.63,1.13 3.25,1.25c2.38,0.25 10.25,0.25 10.25,0.25c0,0 6.25,0 10.5,-0.37c0.63,-0.13 1.88,-0.13 3,-1.25c0.88,-0.88 1.25,-3 1.25,-3c0,0 0.25,-2.38 0.25,-4.88l0,-2.25c0,-2.38 -0.25,-4.75 -0.25,-4.75zm-17.87,9.87l0,-8.37l8.12,4.25l-8.12,4.12z" fill="#157b0f" id="svg_5" transform="matrix(1 0 0 1 0 0)"/>
  <path d="m198,6.4c4,0 4.48,0.02 6.06,0.09c1.71,0.08 3.29,0.42 4.51,1.64c1.22,1.22 1.56,2.8 1.64,4.51c0.07,1.58 0.09,2.06 0.09,6.06c0,4.01 -0.02,4.48 -0.09,6.06c-0.08,1.71 -0.42,3.29 -1.64,4.51c-1.22,1.22 -2.8,1.56 -4.51,1.64c-1.58,0.07 -2.06,0.09 -6.06,0.09c-4.01,0 -4.48,-0.02 -6.06,-0.09c-1.71,-0.08 -3.29,-0.42 -4.51,-1.64c-1.22,-1.22 -1.56,-2.8 -1.64,-4.51c-0.07,-1.58 -0.09,-2.06 -0.09,-6.06c0,-4.01 0.02,-4.48 0.09,-6.07c0.08,-1.7 0.42,-3.29 1.64,-4.5c1.22,-1.22 2.8,-1.56 4.51,-1.64c1.58,-0.07 2.06,-0.09 6.06,-0.09zm0,-2.7c-4.08,0 -4.59,0.02 -6.18,0.09c-2.44,0.11 -4.58,0.71 -6.3,2.43c-1.72,1.72 -2.32,3.86 -2.43,6.3c-0.07,1.59 -0.09,2.11 -0.09,6.18c0,4.08 0.02,4.59 0.09,6.18c0.11,2.44 0.71,4.58 2.43,6.3c1.72,1.72 3.86,2.32 6.3,2.43c1.59,0.07 2.11,0.09 6.18,0.09c4.07,0 4.59,-0.02 6.18,-0.09c2.44,-0.11 4.58,-0.71 6.3,-2.43c1.72,-1.72 2.32,-3.86 2.43,-6.3c0.07,-1.59 0.09,-2.11 0.09,-6.18c0,-4.07 -0.02,-4.59 -0.09,-6.18c-0.11,-2.44 -0.71,-4.58 -2.43,-6.3c-1.72,-1.72 -3.86,-2.32 -6.3,-2.43c-1.59,-0.07 -2.11,-0.09 -6.18,-0.09z" fill="#157b0f" id="svg_6"/>
  <path d="m198,11c-1.02,-0.02 -2.03,0.17 -2.98,0.55c-0.95,0.38 -1.81,0.95 -2.54,1.67c-0.72,0.71 -1.3,1.57 -1.69,2.51c-0.4,0.94 -0.6,1.95 -0.6,2.97c0,1.02 0.2,2.03 0.6,2.97c0.39,0.95 0.97,1.8 1.69,2.52c0.73,0.71 1.59,1.28 2.54,1.66c0.95,0.38 1.96,0.57 2.98,0.55c2.03,-0.02 3.96,-0.85 5.38,-2.29c1.42,-1.44 2.22,-3.39 2.22,-5.41c0,-2.02 -0.8,-3.97 -2.22,-5.41c-1.42,-1.44 -3.36,-2.26 -5.38,-2.29zm0,12.7c-1.33,0 -2.6,-0.53 -3.53,-1.46c-0.94,-0.94 -1.47,-2.21 -1.47,-3.54c0,-1.33 0.53,-2.6 1.47,-3.53c0.93,-0.94 2.2,-1.47 3.53,-1.47c1.33,0 2.6,0.53 3.53,1.47c0.94,0.93 1.47,2.2 1.47,3.53c0,1.33 -0.53,2.6 -1.47,3.54c-0.93,0.93 -2.2,1.46 -3.53,1.46z" fill="#157b0f" id="svg_7"/>
  <path d="m206.01,12.49c0.99,0 1.8,-0.8 1.8,-1.8c0,-0.99 -0.81,-1.8 -1.8,-1.8c-1,0 -1.8,0.81 -1.8,1.8c0,1 0.8,1.8 1.8,1.8z" fill="#157b0f" id="svg_8"/>
 </g>
</svg>
